X: 3
M:6/8
L:1/8
K:G
|:B|d3 dcd|e2 f gfe|ded/2c/2 Bcd|ecA GFE|
d3 dcd|e2 f gfg|ecA GAG|FEF G2:||

